X:182
T:Killoran's
Z: id:dc-reel-166
M:C
L:1/8
K:D Major
A|d3A B2AF|E2eg fdec|dcdA BGAF|GBAG FDDA|!
d3A B2AF|E2eg fdec|defd edBc|dBAG FDD|]!
g|fddc dfaf|g2ga beeg|fddc dfaf|gfeg fdde|!
fddc dfaf|g2ga beef|g3f gabg|faeg fdd|]!

